icons/tools-line.svg

<svg xmlns="http://www.w3.org/2000/svg" width="24" height="24" fill="none"><g clip-path="url(#a)"><g><path fill="#121212" d="M5.33 3.27096C5.99703 3.03294 6.72058 3.00288 7.40506 3.18476C8.08954 3.36664 8.70274 3.75189 9.16365 4.28961C9.62456 4.82734 9.91149 5.49225 9.98654 6.19649C10.0616 6.90073 9.92123 7.61117 9.584 8.23396L20.293 18.944L18.879 20.358L8.169 9.64796C7.54607 9.98386 6.83599 10.1231 6.13233 10.0475C5.42867 9.97177 4.76445 9.68466 4.22721 9.22397C3.68997 8.76327 3.30491 8.15061 3.12279 7.46673C2.94067 6.78284 2.97003 6.05982 3.207 5.39296L5.444 7.62996C5.58237 7.77322 5.74788 7.8875 5.93089 7.96611C6.1139 8.04472 6.31073 8.0861 6.5099 8.08783C6.70906 8.08956 6.90658 8.05161 7.09093 7.97619C7.27527 7.90077 7.44275 7.78939 7.58359 7.64855C7.72443 7.50771 7.83581 7.34023 7.91123 7.15589C7.98665 6.97154 8.0246 6.77402 8.02287 6.57485C8.02114 6.37569 7.97976 6.17886 7.90115 5.99585C7.82254 5.81284 7.70826 5.64733 7.565 5.50896L5.329 3.26996L5.33 3.27096ZM15.697 5.15496L18.879 3.38696L20.293 4.80096L18.525 7.98296L16.757 8.33696L14.637 10.458L13.222 9.04396L15.343 6.92296L15.697 5.15496ZM8.979 13.287L10.393 14.701L5.09 20.004C4.9097 20.1848 4.66706 20.2898 4.41183 20.2974C4.1566 20.305 3.90811 20.2148 3.71731 20.0451C3.52651 19.8754 3.40786 19.6391 3.38568 19.3847C3.36349 19.1304 3.43946 18.8771 3.598 18.677L3.676 18.59L8.979 13.287Z"/></g></g><defs><clipPath id="a"><rect width="24" height="24" fill="white"/></clipPath></defs></svg>

<svg width="24" height="24" fill="none" xmlns="http://www.w3.org/2000/svg"><g clip-path="url(#a)"><path d="M5.33 3.271a3.5 3.5 0 0 1 4.254 4.963l10.709 10.71-1.414 1.414-10.71-10.71a3.503 3.503 0 0 1-4.962-4.255L5.444 7.63a1.5 1.5 0 1 0 2.121-2.121L5.329 3.27l.001.001Zm10.367 1.884 3.182-1.768 1.414 1.414-1.768 3.182-1.768.354-2.12 2.121-1.415-1.414 2.121-2.121.354-1.768Zm-6.718 8.132 1.414 1.414-5.303 5.303a1 1 0 0 1-1.492-1.327l.078-.087 5.303-5.303Z" /></g><defs><clipPath id="a"><path fill="#fff" d="M0 0h24v24H0z"/></clipPath></defs></svg>
